X:1
T:Title
%%score { 1 | 2 }
L:1/8
M:6/4
K:Bb
V:1 treble nm="Grand Piano"
V:2 bass 
V:1
 z6 z4[Q:1/4=150] [DF]2 | [DB]2 [CA]3 [DB] [Ec]2 [EB]2 [EG]2 | [DF]2 [DB]4- [DB]4 D2 | %3
 F2 =E3 F G2 F2 _E2 |[M:5/4] D2- D2- D6 |[M:1/4] D2 |[M:6/4] D4 DD D2 D2 D2 | G2 G4- G4 B2 | %8
 A4 [=EG][FA] [DEB]2 [CEA]2 [B,EG]2 |[M:5/4] [Ec]2- [Ec]2- [Ec]6 |[M:1/4] [Fd]2 | %11
[M:6/4] [Fd]4 [DF][DF] [DF]2 [DG]2 [DB]2 | [EB]2 [EA]4- [EA]4 e2 | e4 GG G2 A2 G2 | %14
[M:5/4] [DF]2- [DF]2- [DF]6 |[M:1/4] [DF]2 |[M:6/4] [Fd]4 [Ec][DB] [DB]2 [Ec]2 [Fd]2 | %17
 [_Af]2 [Ge]4- [Ge]4 [_DG]2 | [DF]4 [Ge][Fd] [=Ec]2 [EG]2 [_EA]2 |[M:5/4] [DB]2- [DB]2- [DB]6 |] %20
V:2
 z6 z4 [B,,B,]2 | [B,,B,]2 [B,,B,]3 [B,,B,] [B,,G,]2 [B,,G,]2 [B,,A,]2 | %2
 [B,,B,]2 [B,,B,]4- [B,,B,]4 [F,B,]2 | [F,B,D]2 [G,B,_D]3 [F,B,=D] [F,A,E]2 [F,A,D]2 [F,A,C]2 | %4
[M:5/4] [B,,B,]2- [B,,B,]2- [B,,B,]6 |[M:1/4] [B,,F,]2 | %6
[M:6/4] [D,^F,C]4 [D,F,C][D,F,C] [D,F,C]2 [=E,G,C]2 [F,A,C]2 | %7
 [G,B,D]2 [G,B,D]4- [G,B,D]4 [G,C=E]2 | [F,CF]4 [C,C][C,C] C,2 C,2 C,2 | %9
[M:5/4] [F,A,]2- [F,A,]2- [F,A,]6 |[M:1/4] [B,,B,]2 | %11
[M:6/4] [B,,B,]4 [B,,B,][B,,B,] [B,,B,]2 [B,,B,]2 [B,,B,]2 | [C,F,]2 [C,F,]4- [C,F,]4 [F,A,E]2 | %13
 [F,A,E]4 [F,A,E][F,A,E] [F,A,E]2 [F,A,E]2 [F,A,E]2 |[M:5/4] [B,,B,]2- [B,,B,]2- [B,,B,]6 | %15
[M:1/4] [B,,B,]2 |[M:6/4] [B,,B,]4 [B,,B,][B,,B,] [B,,B,]2 [B,,B,]2 [B,,B,]2 | %17
 [D,B,]2 [E,B,]4- [E,B,]4 [=E,B,]2 | [F,B,]4 [F,B,][F,B,] [G,C]2 [C,C]2 [F,C]2 | %19
[M:5/4] [B,,B,]2- [B,,B,]2- [B,,B,]6 |] %20

